storage/app/icons/phosphoricons/fill/waveform-slash-fill.svg

<svg xmlns="http://www.w3.org/2000/svg" viewBox="0 0 256 256" fill="currentColor"><path d="M216,40H40A16,16,0,0,0,24,56V200a16,16,0,0,0,16,16H216a16,16,0,0,0,16-16V56A16,16,0,0,0,216,40ZM184,96a8,8,0,0,1,16,0v50.75a8,8,0,0,1-16,0Zm-32,8a8,8,0,0,1,16,0v10.75a8,8,0,0,1-16,0ZM72,152a8,8,0,0,1-16,0V104a8,8,0,0,1,16,0Zm125.66,45.66a8,8,0,0,1-11.32,0L136,147.31V168a8,8,0,0,1-16,0V131.31l-16-16V184a8,8,0,0,1-16,0V99.5c0-.06,0-.12,0-.18L58.34,69.66A8,8,0,0,1,69.66,58.34l128,128A8,8,0,0,1,197.66,197.66Z"/></svg>

<svg xmlns="http://www.w3.org/2000/svg" fill="currentColor" viewBox="0 0 256 256"><path d="M216 40H40a16 16 0 0 0-16 16v144a16 16 0 0 0 16 16h176a16 16 0 0 0 16-16V56a16 16 0 0 0-16-16m-32 56a8 8 0 0 1 16 0v50.75a8 8 0 0 1-16 0Zm-32 8a8 8 0 0 1 16 0v10.75a8 8 0 0 1-16 0Zm-80 48a8 8 0 0 1-16 0v-48a8 8 0 0 1 16 0Zm125.66 45.66a8 8 0 0 1-11.32 0L136 147.31V168a8 8 0 0 1-16 0v-36.69l-16-16V184a8 8 0 0 1-16 0V99.32L58.34 69.66a8 8 0 0 1 11.32-11.32l128 128a8 8 0 0 1 0 11.32"/></svg>
